icons/arrow-circle-downrightB.svg

<svg width="24" height="24" viewBox="0 0 24 24" fill="none" xmlns="http://www.w3.org/2000/svg">
<path d="M12 21C16.9706 21 21 16.9706 21 12C21 7.02944 16.9706 3 12 3C7.02944 3 3 7.02944 3 12C3 16.9706 7.02944 21 12 21Z" fill="black"/>
<path fill-rule="evenodd" clip-rule="evenodd" d="M12 3.75C7.44365 3.75 3.75 7.44365 3.75 12C3.75 16.5563 7.44365 20.25 12 20.25C16.5563 20.25 20.25 16.5563 20.25 12C20.25 7.44365 16.5563 3.75 12 3.75ZM2.25 12C2.25 6.61522 6.61522 2.25 12 2.25C17.3848 2.25 21.75 6.61522 21.75 12C21.75 17.3848 17.3848 21.75 12 21.75C6.61522 21.75 2.25 17.3848 2.25 12Z" fill="black"/>
<path fill-rule="evenodd" clip-rule="evenodd" d="M9.10394 9.00812C9.39683 8.71523 9.87171 8.71523 10.1646 9.00812L14.4072 13.2508C14.7001 13.5437 14.7001 14.0185 14.4072 14.3114C14.1143 14.6043 13.6395 14.6043 13.3466 14.3114L9.10394 10.0688C8.81105 9.77589 8.81105 9.30102 9.10394 9.00812Z" fill="white"/>
<path fill-rule="evenodd" clip-rule="evenodd" d="M9.66198 14.4175C9.66198 14.0033 9.99776 13.6675 10.412 13.6675L13.6925 13.6675L13.6925 10.387C13.6925 9.97275 14.0283 9.63696 14.4425 9.63696C14.8567 9.63696 15.1925 9.97275 15.1925 10.387L15.1925 13.9225C15.1925 14.6196 14.6446 15.1675 13.9475 15.1675L10.412 15.1675C9.99776 15.1675 9.66198 14.8317 9.66198 14.4175Z" fill="white"/>
</svg>

<svg xmlns="http://www.w3.org/2000/svg" fill="none" viewBox="0 0 24 24">
  <path fill="#000" d="M12 21a9 9 0 1 0 0-18 9 9 0 0 0 0 18Z"/>
  <path fill="#000" fill-rule="evenodd" d="M12 3.75a8.25 8.25 0 1 0 0 16.5 8.25 8.25 0 0 0 0-16.5ZM2.25 12c0-5.385 4.365-9.75 9.75-9.75s9.75 4.365 9.75 9.75-4.365 9.75-9.75 9.75S2.25 17.385 2.25 12Z" clip-rule="evenodd"/>
  <path fill="#fff" fill-rule="evenodd" d="M9.104 9.008a.75.75 0 0 1 1.06 0l4.243 4.243a.75.75 0 1 1-1.06 1.06L9.104 10.07a.75.75 0 0 1 0-1.06Z" clip-rule="evenodd"/>
  <path fill="#fff" fill-rule="evenodd" d="M9.662 14.418a.75.75 0 0 1 .75-.75h3.28v-3.281a.75.75 0 1 1 1.5 0v3.535c0 .698-.547 1.245-1.245 1.245h-3.535a.75.75 0 0 1-.75-.75Z" clip-rule="evenodd"/>
</svg>
